X: 082142
T: Humours of Nickey
C: Joe Liddy
Z: BB
S: "The Leitrim Fiddler" (Dublin 1981)
L: 1/8
M: 4/4
R: reel
Q: 1/4 = 180
K: Edor
ed | B2 Ad BE E2 | BEFA dfed | B2 Ad BEFE | DEFA BAFA |
BdAd BEFD | BEFA Bcde | faec dBAF | BFAF E2 :|
FA | Beed BAFA | BEFE BEFA | Beex dfed | BdAG FDFA |
Beed BAFA | BEFD EFGA | Bcde fgec | dBAF E2 ||
FA | Beed BdAB | d2 fd adfd | egfd efdB | AGFD E2 FA |
Beeg fged | BdAF DEFA | B2 Ad BEFA | BFAF E4 ||
%%%%%%%%%%%%%%%%%%%%
